X: 19659
T: Jemmy As Nancy
R: jig
M: 6/8
K: Amajor
e|e2d c2B|B2A B2c|d2e f2f|e2c ABc|
d3 c3|A3 B2c|d2e f2f|e3e2e|
e2d c2B|B2A B2c|d2e f2f|e2c ABc|
d3 e3|f3 e2d|c2c dcB|A3A2||

